build/img/icon-fb-desktop.svg

<svg width="8" height="15" viewBox="0 0 8 15" xmlns="http://www.w3.org/2000/svg">
<path d="M5.33333 8.625H7.2381L8 5.625H5.33333V4.125C5.33333 3.3525 5.33333 2.625 6.85714 2.625H8V0.105C7.75162 0.0727501 6.81371 0 5.82324 0C3.75467 0 2.28571 1.24275 2.28571 3.525V5.625H0V8.625H2.28571V15H5.33333V8.625Z" />
</svg>

<svg width="8" height="15" xmlns="http://www.w3.org/2000/svg"><path d="M5.333 8.625h1.905l.762-3H5.333v-1.5c0-.772 0-1.5 1.524-1.5H8V.105A21.797 21.797 0 005.823 0C3.755 0 2.286 1.243 2.286 3.525v2.1H0v3h2.286V15h3.047V8.625z"/></svg>
